src/assets/filled/Home.svg

<svg width="24" height="24" viewBox="0 0 24 24"  xmlns="http://www.w3.org/2000/svg">
<path d="M20.86 8.36985L13.93 2.82985C12.86 1.96985 11.13 1.96985 10.07 2.81985L3.14002 8.36985C2.36002 8.98985 1.86002 10.2998 2.03002 11.2798L3.36002 19.2398C3.60002 20.6598 4.96002 21.8098 6.40002 21.8098H17.6C19.03 21.8098 20.4 20.6498 20.64 19.2398L21.97 11.2798C22.13 10.2998 21.63 8.98985 20.86 8.36985ZM12 15.4998C10.62 15.4998 9.50002 14.3798 9.50002 12.9998C9.50002 11.6198 10.62 10.4998 12 10.4998C13.38 10.4998 14.5 11.6198 14.5 12.9998C14.5 14.3798 13.38 15.4998 12 15.4998Z" />
</svg>

<?xml version="1.0" encoding="UTF-8"?>
<svg width="24" height="24" viewBox="0 0 24 24" xmlns="http://www.w3.org/2000/svg">
 <path d="m20.86 8.3698-6.93-5.54c-1.07-0.86-2.8-0.86-3.86-0.01l-6.93 5.55c-0.78 0.62-1.28 1.93-1.11 2.91l1.33 7.96c0.24 1.42 1.6 2.57 3.04 2.57h11.2c1.43 0 2.8-1.16 3.04-2.57l1.33-7.96c0.16-0.98-0.34-2.29-1.11-2.91zm-8.86 7.13c-1.38 0-2.5-1.12-2.5-2.5s1.12-2.5 2.5-2.5 2.5 1.12 2.5 2.5-1.12 2.5-2.5 2.5z"/>
</svg>
